X: 36402
T: Seán Sa Cheo
R: reel
M: 4/4
K: Edorian
(3Bcd|:e2dg eA (3Bcd|e3 c dz BA|Beed eggd|(3Bcd ge dG (3Bcd|
e2dg eA (3Bcd|e3 c dz za|beed eggd|(3Bcd ge dG (3Bcd||
cA A2 cA (3Bcd|cA A2 dG (3Bcd|cA A2 EAcA|(3Bcd ge dG (3Bcd|
cA A2 cA (3Bcd|cA A2 dz zd|cA A2 eAeA|(3Bcd ge defg||
a3 c eac'a|abba e3 f|fgbg agbg|g2 bg efg^g|
a3 c eac'a|abba e3 f|gz ga agef|feed ed (3Bcd:|

